!!!OTL: ICH GIENG EINMAL SPAZIEREN
!!!ARE: Europa, Mitteleuropa, Deutschland, Hessen; Frankfurt a.M.; Oberhessen
!!!SCT: E0818A
!!!YEM: Copyright 1995, estate of Helmut Schaffrath.
**kern
*ICvox
*Ivox
*M4/4
*k[f#c#g#]
*A:
{4e
=1
4.a
8e
4c#
4e
=2
4.a
8g#
4a}
{4cc#
=3
4.b
8a
4g#
4a
=4
2b
4r}
{4a
=5
4a
4cc#
4cc#
4cc#
=6
4.cc#
8dd
4ee}
{4cc#
=7
4cc#
4b
4b
4b
=8
4.b
8cc#
4dd}
{4ee
=9
4cc#
4cc#
4b
4b
=10
2a
4r}
==
!!!AGN: Kilt - Lied
!!!ONB: ESAC (Essen Associative Code) Database: ERK2
!!!AMT: simple quadruple
!!!AIN: vox
!!!EED: Helmut Schaffrath
!!!EEV: 1.0
*-
